X: 713
T: Ey Gülbün-i Iyş
C: Itrî
O: Turkey
F: http://compmusic.upf.edu/node/140
N: neva--kar--nimsakil--ey_gulbun-i--itri
N: makam= neva
N: form= kar
N: usul= nimsakil = 24/4
M: 24/4
L: 1/16
K: C _2/4B ^3/4f  
Q: 1/4=84
%%MIDI tuningsystem comma53
d4 A4 B4 c4  | z2 d4 e2 z2 c4 d2  | d8 z2 G4 A2  | \
w:  Ey  gül bün_ i   |  i  *  i   |  *  iyş  i   | 
A12 z2 A2  | g6 a2 a6 b2  | 
w:  mî de  |  med   | 
{d'}c'4 b2 a2 a2 g2 g2 =f2  | =f2 e2 e2 d2 {f}e3d c4  | \
w:   |  *  *  sâ *  *  ki  *  i   | 
z2 d4 e2 d2 c2 B2 d2  | 
w:  gül   | 
c6 z2 g2 f2 g2 a2  | a2 g2 =f2 e2 d2 c2 e2 d2  | \
w:  *  gül_ *  *  i   |  zâr_ *  *  *  *  *  *  ı   | 
{e}d2 c2 B2 A2 A2 B2 A2 G2  | 
w:  *  kû   | 
z2 e4 d2 d6 z2  | d4 A4 B4 c4  | z2 d4 e2 z2 c4 d2  | \
w:  câ *  nım    |  Ey  gül bün_ i   |  i  *  i   | 
d8 z2 G4 A2  | A12 z2 A2  | 
w:  *  iyş  i   |  mî de  | 
g6 a2 a6 b2  | {d'}c'4 b2 a2 a2 g2 g2 =f2  | \
w:  med   |   | 
=f2 e2 e2 d2 {f}e3d c4  | z2 d4 e2 d2 c2 B2 d2  | 
w:  *  *  sâ *  *  ki  *  i   |  gül   | 
c6 z2 g2 f2 g2 a2  | a2 g2 =f2 e2 d2 c2 e2 d2  | \
w:  *  gül_ *  *  i   |  zâr_ *  *  *  *  *  *  ı   | 
{e}d2 c2 B2 A2 A2 B2 A2 G2  | 
w:  *  kû   | 
z2 e4 d2 d6 z2  | z4 A2 B2 c2 d2 c4  | \
w:  câ *  nım    |  Te  ne  nen  *  ni   | 
B2 z2 {e}d2 {d}c2 e2 d2 c4  | B2 z2 d2 c2 d4 e4  | 
w:  *  *  te  *  ne  nen  *  ni   |  *  te  ne  nen  nen   | 
f4 g4 f3e d2 z2  | e3f g2 a2 g2 f2 e2 =f2  | \
w:  nen  nen  nen  *  ni   |  ye  le  lel  lel  lel  *  lel   | 
e2 d2 ^c2 d2 d8  | z2 f4 g2 z2 e4 f2  | 
w:  li    |  Ye  le  le  le   | 
z2 d4 ^c2 d4 e4  | z2 ^f4 g2 z2 e4 ^3/4f2  | \
w:  le  le  lel  li   |  te  re  le  le   | 
z2 d4 e2 e2 d2 c2 B2  | c2 z2 c2 d2 c4 g4  | 
w:  le  le  lel  *  li   |  ah  ya  la  yel  lel   | 
{a}g2 ^f2 e2 d2 d6 z2  | e3^f g2 a2 g2 ^3/4f2 e2 ^f2  | \
w:  *  li    |  Ye  le  lel  lel  lel  *  lel   | 
d4 g4 g3f e2 ^f2  | a2 g2 f2 e2 d4 z2 e2  | 
w:  lel  lel  li  *  *  a  |  man  *  ye  le  lel  le   | 
d4 z2 e2 d4 e4  | z4 d2 d2 d4 g2 =f2  | \
w:  lel  le  lel  li   |  ye  le  lel  lel   | 
e2 d2 d2 c2 B2 c2 d4  | z4 A4 B4 c4  | 
w:  lel  *  lel  *  lel  *  li    |  Bâd_ ı  ba  | 
z2 d4 e2 z2 c4 d2  | d8 z2 G4 A2  | A12 z2 A2  | \
w:  hâ  *  hâ   |  *  hâr_ ı   |  mî ve  | 
g6 a2 a6 b2  | {d'}c'4 b2 a2 a2 g2 g2 =f2  | 
w:  zed   |   | 
=f2 e2 e2 d2 {f}e3d c4  | z2 d4 e2 d2 c2 B2 d2  | \
w:  *  *  bâ *  *  de  *  i   |  hoş   | 
c6 z2 g2 f2 g2 a2  | a2 g2 =f2 e2 d2 c2 e2 d2  | 
w:  *  hoş  *  *  gü  |  vâr_ *  *  *  *  *  *  ı   | 
{e}d2 c2 B2 A2 A2 B2 A2 G2  | z2 e4 d2 d6 z2  | \
w:  *  kû   |  câ *  nım    | 
d4 A4 B4 c4  | z2 d4 e2 z2 c4 d2  | 
w:  Ey  her  gül_ i   |  ne  *  ne   | 
d8 z2 G4 A2  | A12 z2 A2  | g6 a2 a6 b2  | \
w:  *  nev  zi   |  gül  rûh_  |  i   | 
{d'}c'4 b2 a2 a2 g2 g2 =f2  | =f2 e2 e2 d2 {f}e3d c4  | 
w:   |  *  *  yâd_ *  *  ı  *  he  | 
z2 d4 e2 d2 c2 B2 d2  | c6 z2 g2 ^f2 g2 a2  | \
w:  mi  |  *  di hed   | 
a2 g2 =f2 e2 d2 c2 e2 d2  | 
w:  *  *  *  *  *  *  *  ve  | 
{e}d2 c2 B2 A2 A2 B2 A2 G2  | z2 e4 d2 d6 z2  | \
w:  *  lî   |  câ *  nım    | 
d4 A4 B4 c4  | z2 d4 e2 z2 c4 d2  | 
w:  Ey  her  gül_ i   |  ne  *  ne   | 
d8 z2 G4 A2  | A12 z2 A2  | g6 a2 a6 b2  | \
w:  *  nev  zi   |  gül  rûh_  |  i   | 
{d'}c'4 b2 a2 a2 g2 g2 =f2  | =f2 e2 e2 d2 {f}e3d c4  | 
w:   |  *  *  yâd_ *  *  ı  *  he  | 
z2 d4 e2 d2 c2 B2 d2  | c6 z2 g2 ^f2 g2 a2  | \
w:  mi  |  *  di hed   | 
a2 g2 =f2 e2 d2 c2 e2 d2  | 
w:  *  *  *  *  *  *  *  ve  | 
{e}d2 c2 B2 A2 A2 B2 A2 G2  | z2 e4 d2 d6 z2  | \
w:  *  lî   |  câ *  nım    | 
z4 A2 B2 c2 d2 c4  | B2 z2 {e}d2 {d}c2 e2 d2 c4  | 
w:  Te  ne  nen  *  ni   |  *  *  te  *  ne  nen  *  ni   | 
B2 z2 d2 c2 d4 e4  | f4 g4 f3e d2 z2  | \
w:  *  te  ne  nen  nen   |  nen  nen  nen  *  ni   | 
e3f g2 a2 g2 f2 e2 =f2  | e2 d2 ^c2 d2 d8  | 
w:  ye  le  lel  lel  lel  *  lel   |  li    | 
z2 f4 g2 z2 e4 f2  | z2 d4 ^c2 d4 e4  | \
w:  Ye  le  le  le   |  le  le  lel  li   | 
z2 ^f4 g2 z2 e4 ^3/4f2  | z2 d4 e2 e2 d2 c2 B2  | 
w:  te  re  le  le   |  le  le  lel  *  li   | 
c2 z2 c2 d2 c4 g4  | {a}g2 ^f2 e2 d2 d6 z2  | \
w:  ah  ya  la  yel  lel   |  *  li    | 
e3^f g2 a2 g2 ^3/4f2 e2 ^f2  | d4 g4 g3f e2 ^f2  | 
w:  Ye  le  lel  lel  lel  *  lel   |  lel  lel  li  *  *  a  | 
a2 g2 f2 e2 d4 z2 e2  | d4 z2 e2 d4 e4  | \
w:  man  *  ye  le  lel  le   |  lel  le  lel  li   | 
z4 d2 d2 d4 g2 =f2  | e2 d2 d2 c2 B2 c2 d4  | 
w:  ye  le  lel  lel   |  lel  *  lel  *  lel  *  li    | 
z4 A4 B4 c4  | z2 d4 e2 z2 c4 d2  | d8 z2 G4 A2  | \
w:  Gûş_ i  su  |  hâ  *  hâ   |  *  hân  şi  | 
A12 z2 A2  | g6 a2 a6 b2  | 
w:  nev  kû  |  câ  | 
{d'}c'4 b2 a2 a2 g2 g2 =f2  | =f2 e2 e2 d2 {f}e3d c4  | \
w:   |  *  *  dî *  *  de  *  i   | 
z2 d4 e2 d2 c2 B2 d2  | 
w:  i   | 
c6 z2 g2 f2 g2 a2  | a2 g2 =f2 e2 d2 c2 e2 d2  | \
w:  *  i *  *  ti  |  bar   | 
{e}d2 c2 B2 A2 A2 B2 A2 G2  | 
w:  *  kû   | 
z2 g4 a2 a6 z2  | a4 e4 f4 g4  | z2 a4 =b2 z2 g4 a2  | \
w:  câ *  nım    |  Ey  mec lis_ i   |  be  *  be   | 
a8 z2 a4 a2  | =b2 a4 ^g2 ^1/4f4 e4  | 
w:  *  bezm_ i   |  iyş   | 
z2 e4 f2 g2 f2 g4  | z2 e4 g2 =f2 e2 d2 ^c2  | \
w:  râ   |  câ *  nım    | 
_7/8B2 A2 a4 a2 ^g2 ^1/4f2 g2  | a4 ^g2 a2 a4 g2 a2  | 
w:  *  *  Gâ li *  *  ye   |  i   | 
a8 z2 a4 a2  | _1/4b2 a4 ^g2 f4 e4  | \
w:  *  ah  mu  |  râd   | 
z2 e4 f2 g2 f2 g4  | z2 e4 g2 f2 e2 d2 g2  | 
w:  nist   |  câ *  nım    | 
f8 z8  | g3_1/4b a2 g2 f2 e2 d2 ^c2  | \
w:  Ten   |  ten  ne  nen  nen  nen  nen  nen  ni   | 
e12 z4  | e3g f2 e2 d2 ^3/4c2 _7/8B2 A2  | \
w:  ten   |  ten  ne  nen  nen  nen  nen  nen  ni   | 
d12 c4  | 
w:  ten   Te   | 
e4 d2 ^c2 _7/8B4 A4  | z4 ^c2 d2 e4 e4  | \
w:  re  le  *  lel  li   |  ye  le  lel  lel   | 
e4 e2 g2 =f2 e2 d2 ^c2  | _7/8B2 A2 ^c2 d2 e4 e4  | 
w:  lel  lel  *  lel  *  li   |  *  *  te  re  lel  lel   | 
e4 e2 g2 =f2 e2 d2 ^c2  | _7/8B2 A2 e2 =f2 e2 d2 ^c2 d2  | \
w:  lel  lel  *  lel  *  li   |  ya  *  la  *  lel  *  lel   | 
^c2 _7/8B2 A2 c2 B8  | z4 _7/8B4 B2 A2 G2 A2  | 
w:  li    |  Gâ li *  *  ye   | 
_7/8B4 A2 B2 B4 A2 B2  | _7/8B8 z2 d4 d2  | \
w:  i   |  *  ah  mu  | 
e2 d4 ^c2 _7/8B4 A4  | z4 A2 _7/8B2 ^c4 B2 A2  | 
w:  râd   |  nist   | 
z2 d4 e2 e6 z2  | z104  | e8e4e2d2^c2d2e8e2g2f2e2e12z4 e2=f2e2d2a4a2g4^3/4f2f4e8f4a2g2f2e2d4e2=f2  | 
w:  câ *  nım    |  |  Ah  de  re  *  *  *  dil  *  *  *  *  lâ  dî  *  *  *  de  re  *  *  dil  *  *  lâ   | 
e2d2d2^c2d4e4z4e8e2g2f2e2e12z4 e8e4e4g4g4f2 g2f4e2=f2e4d2e2d4c2d2  | 
w:  *  *  *  *  te  ne  tâ  *  *  *  *  dir  ney    | 
^c2_7/8B2B2A2^f4f8g3fe2 f2e4f4a2g2=f2e2d2c2d4 e2f2e2d2g4g2f4e2e4d8e2f2e2d2d2c2c2B2A2f2  | 
w:  *  *  *  *  de  re  dil  *  *  *  *  *  lâ  *  *  *  *  *  *  dir  *  *  *  de  re  *  *  dil  *  *  *  lâ   | 
e2d2d4^c4d6c2c2_7/8B2A2 B2A2{e}d2c2B2B4A8A4 A16z4a8^g2a2=b2a2a8a4z4  | 
w:  *  *  *  te  ne  *  tâ  *  *  *  *  *  *  *  *  dir  *  *  ney  câ *  *  *  *  nım    | 
z9  | _1/4b2a2a2 ^g2g2^1/4f2 e4z2  | \
w:  |  Ey  *  şâ *  hid_ *  i   | 
e4=f2 z2d4 e2e8z4e2e2 f3 ed4e6z2a^g a=ba2g2  | 
w:  kud *  sî  *  *  ki  ke şed  *  *  *  ben   | 
^1/4f4e4e4 e2e2=f3ed2f2 ede  | =fe2 d2^c2_7/8B2  | \
w:  *  *  bend_ i  ni kâ *  *  *  bet    |   | 
A4e2 d2d2^c2 c2_7/8B2A4z2A4B2c2 d2c2B2  | 
w:  *  Vey  *  mürg_ *  i  *  be hişt_  | 
d^cd ed2 c2c2_7/8B2 B2A2A8 z8a ^ga=b  | \
w:  i  *  *  *  *  *  ki  *  di *  hed  dâ  | 
a2^g2^1/4f4e4 e4e2  | 
w:  *  *  *  *  *  ne   | 
e2=f3e d2f2e12z4z24^c4d4e4e4e4e4e4e4e4g4^f2g2e2=f2d4e4e4g4^3/4f2g2e2=f2d4d4e2f2d4e2g2^f2e2e4=f4e4d4c2_7/8B2B2A2A4A4A4A4A4A4A4A4A4B4A2^G2^1/4F2E2D4A4A4B4A2G2F2E2D4A4B4c2d2e2d2c2B2A16z8z112d4e4e4 | 
w:  vü  â *  *  *  bed   Dir  ten  nen  ni  ten  nen  ni  ten  nen  ni  ten  *  *  *  *  ten  nen  ni  ten  *  *  *  *  te  ne  *  tâ dir  *  *  *  ney   *  *  *  *  *  *  *  Dir  ten  nen  ni  ten  nen  ni  ten  nen  ni  ten  *  *  *  *  ten  nen  ni  ten  *  *  *  *  te  ne  tâ  *  dir  *  *  *  ney   Yen  tir  lâ   | 
g2f2g3^fe4e2=f2e2d2e2f2e2d2e2g2f2e2e2d2d2^c2d4c2d2e4^f4d8z2g2^3/4f2e2d4=f4edefe2d2c2_7/8B2A4^f4f4f2^e2 | 
w:  *  *  tir  *  *  yel  *  *  *  lel  *  *  *  lel  *  *  *  li  *  *  *  ya  lâ  *  ye  le  lel  le  *  le  lel  *  li   *  *  *  *  *  *  *  *  Yen  tir  yâ   | 
^f2g2{g}f3ed4e2=f2e2d2e2f2e2d2e2g2f2e2e2d2d2^c2f4f4e2d4e2c8z2_7/8BcB2A2G4c2B2A12z4z64e8A4e8A4g2f2f2d2e2d2=c4d4e4f3ed2e2e6z2e8A4e8A4g2f2f2d2e2d2c4c4_3/4d4d3c_2/4B2c2c6z2z24z2cdc2B2z2cdc2B2z2cdc2d2d3cc2B2A4A2B2G4e4d2c2B2c2c6z2z2cdc2B2z2cdc2B2z2cdc2d2d3cc2B2A4A2B2G4e2f2e2=d2^c2d2d6z2z2ded2=c2z2ded2c2z2ded2e2e3dc2_1/4B2c4c2d2c4g2a2{a}g2^3/4f2e2d2d8z2ded2c2z2ded2c2z2ded2e2e3dc2_2/4B2c4c2d2c4g4g2f2e2d2d4z4z96d4A4_1/4B4c4z2d4e2z2c4d2d8z2 | 
w:  *  *  *  *  *  *  yel  *  *  *  lel  *  *  *  lel  *  *  *  li  *  *  *  yâ  lâ  yel  *  *  lel  le  *  *  le  lel  lel  *  li   Ten  dir  ten  dir  tâ  *  *  *  *  *  nâ  dir  dir  ten  *  *  *  *  ten  dir  ten  dir  tâ  *  *  *  *  *  nâ  dir  dir  ten   *  *  *  *  Ye  *  *  le  le  *  *  le  le  *  *  le  lel  *  li  *  ah  ya  lâ  yel  lel  li   *  *  *  *  Te  *  *  re  le  *  *  le  le  *  *  le  lel  *  li  *  ah  ya  lâ  yel  lel  *  li   *  *  *  *  Te  *  *  re  le  *  *  le  le  *  *  le  lel  *  li  *  ah  ya  lâ  yel  lel  *  *  li   *  *  *  *  Te  *  *  re  le  *  *  le  le  *  *  le  lel  *  li  *  ah  ya  lâ  yel  lel  li   *  *  *  *  Ah  ey  dem_ i  su  *  su   | 
G4A2A12z2A2g6a2a6_1/4b2{d'}c'4b2a2a2g2g2=f2f2e2e2d2{f}e3dc4z2d4e2d2c2_1/4B2d2c6z2g2 | 
w:  subh_ i  hoş  ne fes  *  *  *  *  *  *  *  *  *  *  *  *  *  nâ *  *  fe  *  i  zü  *  *  *  *  *  *  zülf_  | 
f2g2a2a2g2=f2e2d2c2e2d2{e}d2c2B2A2A2B2A2G2z2e4d2d6z2z4A2B2c2d2c4B2z2{e}d2{d}c2e2d2c4B2z2d2c2d4e4^3/4f4g4f3ed2z2e3fg2a2g2f2e2=f2e2d2^c2d2d8z2^3/4f4g2z2e4f2z2d4c2d4e4z2^f4g2z2 | 
w:  *  *  *  i  yâr_ *  *  *  *  *  ı  *  kû  *  *  *  *  *  *  *  câ *  nım   Te  ne  nen  *  ni  *  *  te  *  ne  nen  *  ni  *  te  ne  nen  nen  nen  nen  nen  *  ni   Ye  le  lel  lel  lel  *  lel  *  li  *  *  *  *  ye  le  le  le  le  le  lel  li   Te  re   | 
e4f2z2d4e2e2d2c2B2c2z2c2d2c4g4{a}g2^f2e2d2d6z2e3fg2a2g2^3/4f2e2^f2d4g4g3^3/4fe2^f2a2g2^3/4f2e2d4z2e2d4z2e2d4e4z4d2d2d4g2=f2e2d2d2c2B2c2d4z4A4B4c4z2d4e2z2c4d2d8z2 | 
w:  le  le  le  le  lel  *  li  *  ah  ya  la  yel  lel  *  li   *  *  *  *  Ye  le  lel  lel  lel  *  lel  *  lel  lel  li  *  *  a man  *  ye  le  lel  le  lel  le  lel  li  ye  le  lel  lel  *  lel  *  lel  *  lel  *  li   Ey  dem_ i  su  *  su   | 
G4A2A12z2A2g6a2a6b2{d'}c'4b2a2a2g2g2=f2f2e2e2d2{f}e3dc4z2d4e2d2c2B2d2c6z2g2 | 
w:  subh_ i  hoş  ne fes  *  *  *  *  *  *  *  *  *  *  *  *  *  nâ *  *  fe *  i  zül  *  *  *  *  *  *  zülf_  | 
f2g2a2a2g2=f2e2d2c2e2d2{e}d2c2B2A2A2B2A2G2z2G4A2A6z2|
w:  *  *  i  yâr_ *  *  *  *  *  *  ı  *  kû  *  *  *  *  *  *  *  câ *  nım    | 


